assets/static/images/calculator.new/autocomplete-plane.svg

<svg width="19" height="19" viewBox="0 0 19 19" fill="none" xmlns="http://www.w3.org/2000/svg">
<path d="M16.8339 3.20427C16.2398 2.60958 15.2735 2.61952 14.6917 3.22634L11.5071 6.54801L3.73554 3.97366L2.10415 5.60664L8.58199 9.59898L5.30421 13.0178L3.2022 12.6724L1.72766 14.1483L4.81793 15.2317L5.90031 18.325L7.37485 16.849L7.02975 14.745L10.4453 11.4641L14.4339 17.9481L16.0653 16.3151L13.4934 8.53617L16.8119 5.34859C17.4181 4.76623 17.4281 3.799 16.8339 3.20427Z" fill="#CECECE"/>
</svg>

<svg width="19" height="19" fill="none" xmlns="http://www.w3.org/2000/svg"><path d="M16.834 3.204a1.498 1.498 0 0 0-2.142.022l-3.185 3.322-7.771-2.574-1.632 1.633 6.478 3.992-3.278 3.419-2.102-.346-1.474 1.476 3.09 1.084L5.9 18.325l1.475-1.476-.345-2.104 3.415-3.28 3.989 6.483 1.631-1.633-2.572-7.779 3.319-3.187c.606-.583.616-1.55.022-2.145z" fill="#CECECE"/></svg>
